X:1
T: Brother's Jig
C:
R:Jig
Q:180
K:Em
M:6/8
L:1/16
B,4E2 E2G2E2|B,4E2 E2G2E2|A,4D2 F2E2D2|A,4D2 F2E2D2|B,4E2 E2G2E2|B,4E2 G4A2|B2A2G2 F2E2D2|E6 E4D2|
B,4E2 E2G2E2|B,4E2 E2G2E2|A,4D2 F2E2D2|A,4D2 F2E2D2|B,4E2 E2G2E2|B,4E2 G4A2|B2A2G2 F2E2D2|E6 E2G2A2|
B4B2 B2A2G2|A4A2 A2G2F2|G4G2 G2F2E2|F4F2 F2G2A2|B2c2B2 B2A2G2|A2B2A2 A2G2F2|G2F2E2 F2E2D2|E6 E2G2A2|
B4B2 B2A2G2|A4A2 A2G2F2|G4G2 G2F2E2|F4F2 F2G2A2|B2c2B2 B2A2G2|A2B2A2 A2G2F2|G2F2E2 F2E2D2|E12||
